X:1
T:Garden City, SM
T:Garden City, SM
T:Horatio William Parker, 1890
T:Public Domain Courtesy of the Cyber Hymnal™
C:Horatio William Parker, 1890
Z:Public Domain
Z:Courtesy of the Cyber Hymnal™
%%score ( 1 2 ) ( 3 4 )
L:1/8
Q:1/4=110
M:4/4
K:Ab
V:1 treble 
V:2 treble 
V:3 bass 
V:4 bass 
V:1
 [CE]2 | [DF]2 [EA]2 [Dc]2 [DB]2 | A6 E2 | [DF]2 [EA]2 [=Dc]2 [_DB]2 | A6 [Fc]2 | %5
 [Ee]2 [EB]2 [EB]2 [Ec]2 | [Dd]2 [Fc]2 [FB]2 [FA]2 | [EA]2 ([DG][CA]) [DB]2 [Dc]2 | [CA]6 |] %9
V:2
 x2 | x8 | (C2 D2 C2) E2 | x8 | (C2 D2 E2) x2 | x8 | x8 | x8 | x6 |] %9
V:3
 [A,,A,]2 | [D,A,]2 [C,A,]2 [B,,A,]2 [E,G,]2 | (A,2 F,2 E,2) [C,A,]2 | %3
 [D,A,]2 [C,A,]2 [B,,A,]2 [E,G,]2 | (A,2 B,2 C2) [A,C]2 | [G,B,]2 [G,B,]2 [_G,B,]2 [F,=A,]2 | %6
 [B,,B,]2 [C,=A,]2 [D,B,]2 [=D,=B,]2 | [E,C]2 (B,A,) [E,F,]2 [E,G,]2 | [A,,A,]6 |] %9
V:4
 x2 | x8 | A,,6 x2 | x8 | A,,6 x2 | x8 | x8 | x2 E,2 x4 | x6 |] %9

